resources/icons/measurements/cycle_rms.svg

<?xml version="1.0" encoding="UTF-8"?>
<svg width="30px" height="20px" version="1.1" viewBox="0 0 30 20" xmlns="http://www.w3.org/2000/svg">
 <g fill="none" fill-rule="evenodd">
  <g transform="translate(-1690 -230)">
   <g transform="translate(1690 231)">
    <path transform="translate(15 9) rotate(180) translate(-15 -9)" d="m1 18h2c3 0 4-2.3123 4-4v-10c0-2 1-4 4-4 3-2.4514e-13 4 2 4 4s-0.13601 10 0 10c0 2 1 4 4 4s4-3 4-4v-10c0-4 4-4 4-4l2 1.6342e-13" stroke="#6D6D6E" stroke-linecap="square" stroke-width="2"/>
    <rect x="5" y="8" width="4" height="3" fill="#4A64FF"/>
    <rect x="21" y="8" width="4" height="3" fill="#4A64FF"/>
    <rect y="3" width="30" height="1" fill="#4A64FF"/>
   </g>
  </g>
 </g>
</svg>

<?xml version="1.0" encoding="UTF-8" standalone="no"?>
<svg width="30px" height="20px" viewBox="0 0 30 20" version="1.1" xmlns="http://www.w3.org/2000/svg" xmlns:xlink="http://www.w3.org/1999/xlink">
    <!-- Generator: Sketch 43.2 (39069) - http://www.bohemiancoding.com/sketch -->
    <title>cycle rms</title>
    <desc>Created with Sketch.</desc>
    <defs></defs>
    <g id="main" stroke="none" stroke-width="1" fill="none" fill-rule="evenodd">
        <g id="gating-icons" transform="translate(-1690.000000, -230.000000)">
            <g id="cycle-rms" transform="translate(1690.000000, 231.000000)">
                <path d="M1,18 C1.46850694,18 4.10782519e-15,18 3,18 C6,18 7,15.687662 7,14 C7,10 7,5.09375245 7,4 C7,2 8,4.299242e-13 11,1.84741098e-13 C14,-6.03961325e-14 15,2 15,4 C15,6 14.8639909,14 15,14 C15,16 16,18 19,18 C22,18 23,15 23,14 C23,11 23,6.5 23,4 C23,1.91680005e-13 27,1.81188398e-13 27,1.81188398e-13 L29,3.44613227e-13" id="Line-Copy-18" stroke="#6D6D6E" stroke-width="2" stroke-linecap="square" transform="translate(15.000000, 9.000000) rotate(-180.000000) translate(-15.000000, -9.000000) "></path>
                <rect id="Rectangle-3" fill="#4A64FF" x="5" y="8" width="4" height="3"></rect>
                <rect id="Rectangle-3-Copy" fill="#4A64FF" x="21" y="8" width="4" height="3"></rect>
                <rect id="Rectangle_2_copy_122-Copy-33" fill="#4A64FF" x="0" y="3" width="30" height="1"></rect>
            </g>
        </g>
    </g>
</svg>
